X:1
T: Clare
C:Bruce Shawyer
R:Reel
Q:232
K:G
M:4/4
L:1/8
|:"G"G2GA BAG2|"D"A2dc B2A2|"G"G2GA BAG2|"C"E2 "D"F2 "G"G4|
"G"B2Bc dcB2|"D"A2dc BcAB|"G"G2GA BAG2|"C"E2 "D"F2 "G"G4:|
|:"G"d2d2 dcB2|g2g2 d3d|d2d2 dcB2|"G"GABc "D"d4|
"G"d2d2 dcB2|g2g2 d3d|B2Bc dcB2|"C"E2 "D"F2 "G"G4:|
